app/dist/common/images/guosheng-financial.svg

<svg height="18" viewBox="0 0 18 18" width="18" xmlns="http://www.w3.org/2000/svg"><path d="m0 0h18v18h-18z" fill="#f0f3fa"/><path d="m12.82 9a3.82 3.82 0 0 1 -5.86 3.24h2.04a3.24 3.24 0 0 0 2.88-4.71h-2.28c-.65 0-1.18.53-1.18 1.18h2.63l.02.29c0 1.14-.92 2.06-2.06 2.06h-4.57a5 5 0 0 0 .74 1.16v.02a4.99 4.99 0 0 0 8.6-4.71h-1.25c.19.45.3.95.3 1.47zm-8.6 1.47a5 5 0 0 1 9.34-3.53h-4.56a2.06 2.06 0 0 0 -2.04 2.36h2.64c0 .65-.53 1.18-1.18 1.18h-2.3a3.24 3.24 0 0 1 2.59-4.7h2.33a3.82 3.82 0 0 0 -5.57 4.7h-1.25z" fill="#ea2e44"/></svg>

<!-- by TradingView --><svg width="18" height="18" viewBox="0 0 18 18" xmlns="http://www.w3.org/2000/svg"><path fill="#F0F3FA" d="M0 0h18v18H0z"/><path d="M12.82 9a3.82 3.82 0 0 1-5.86 3.24H9a3.24 3.24 0 0 0 2.88-4.71H9.6c-.65 0-1.18.53-1.18 1.18h2.63l.02.29c0 1.14-.92 2.06-2.06 2.06H4.44a5 5 0 0 0 .74 1.16v.02a4.99 4.99 0 0 0 8.6-4.71h-1.25c.19.45.3.95.3 1.47Zm-8.6 1.47a5 5 0 0 1 9.34-3.53H9A2.06 2.06 0 0 0 6.96 9.3H9.6c0 .65-.53 1.18-1.18 1.18H6.12a3.24 3.24 0 0 1 2.59-4.7h2.33a3.82 3.82 0 0 0-5.57 4.7H4.22Z" fill="#EA2E44"/></svg>
